dist/img/icon/headphone.svg

<svg width="16" height="16" viewBox="0 0 16 16" fill="none" xmlns="http://www.w3.org/2000/svg">
<g clip-path="url(#clip0_67_12907)">
<path d="M8 0.666504C4.68667 0.666504 2 3.35317 2 6.6665V11.3332C2 12.4398 2.89333 13.3332 4 13.3332H6V7.99984H3.33333V6.6665C3.33333 4.0865 5.42 1.99984 8 1.99984C10.58 1.99984 12.6667 4.0865 12.6667 6.6665V7.99984H10V13.3332H12.6667V13.9998H8V15.3332H12C13.1067 15.3332 14 14.4398 14 13.3332V6.6665C14 3.35317 11.3133 0.666504 8 0.666504Z" fill="#AAAEB3"/>
</g>
<defs>
<clipPath id="clip0_67_12907">
<rect width="16" height="16" fill="white"/>
</clipPath>
</defs>
</svg>

<svg width="16" height="16" viewBox="0 0 16 16" fill="none" xmlns="http://www.w3.org/2000/svg"><g clip-path="url(#clip0_67_12907)"><path d="M8 .667a6 6 0 00-6 6v4.666c0 1.107.893 2 2 2h2V8H3.333V6.667A4.663 4.663 0 018 2a4.663 4.663 0 014.667 4.667V8H10v5.333h2.667V14H8v1.333h4c1.107 0 2-.893 2-2V6.666a6 6 0 00-6-6z" fill="#AAAEB3"/></g><defs><clipPath id="clip0_67_12907"><rect width="16" height="16" fill="#fff"/></clipPath></defs></svg>
